images/icons/NFT-Marketplace.svg

<svg width="200" height="20" viewBox="0 0 200 20" fill="none" xmlns="http://www.w3.org/2000/svg">
<path d="M7.48 13.948H7.876V0H10.78V15.4H5.104L3.3 1.452H2.904V15.4H0V0H5.676L7.48 13.948Z" fill="white"/>
<path d="M14.0647 0H23.9207V2.772H16.9687V6.292H23.7887V9.064H16.9687V15.4H14.0647V0Z" fill="white"/>
<path d="M26.7874 0H37.8754V2.772H33.7834V15.4H30.8794V2.772H26.7874V0Z" fill="white"/>
<path d="M53.0248 0H58.1288L59.0088 11.572V13.816H59.5368V11.572L60.4168 0H65.5208V15.4H62.8808V5.104L63.1448 1.584H62.6168L61.4728 15.4H57.1168L55.9288 1.584H55.4008L55.6648 5.104V15.4H53.0248V0Z" fill="white"/>
<path d="M74.7895 13.816C74.4962 14.5053 74.0855 14.9967 73.5575 15.29C73.0295 15.5687 72.4135 15.708 71.7095 15.708C71.0495 15.708 70.4262 15.5833 69.8395 15.334C69.2675 15.0847 68.7615 14.718 68.3215 14.234C67.8815 13.75 67.5295 13.1633 67.2655 12.474C67.0162 11.7847 66.8915 11 66.8915 10.12V9.768C66.8915 8.90267 67.0162 8.12533 67.2655 7.436C67.5148 6.74667 67.8522 6.16 68.2775 5.676C68.7028 5.192 69.1942 4.82533 69.7515 4.576C70.3235 4.312 70.9322 4.18 71.5775 4.18C72.3549 4.18 72.9782 4.312 73.4475 4.576C73.9315 4.84 74.3129 5.25067 74.5915 5.808H74.9875V4.488H77.7595V12.1C77.7595 12.54 77.9575 12.76 78.3535 12.76H78.7715V15.4H76.8795C76.3809 15.4 75.9702 15.2533 75.6475 14.96C75.3395 14.6667 75.1855 14.2853 75.1855 13.816H74.7895ZM72.3255 13.068C73.1322 13.068 73.7775 12.804 74.2615 12.276C74.7455 11.7333 74.9875 11 74.9875 10.076V9.812C74.9875 8.888 74.7455 8.162 74.2615 7.634C73.7775 7.09133 73.1322 6.82 72.3255 6.82C71.5189 6.82 70.8735 7.09133 70.3895 7.634C69.9055 8.162 69.6635 8.888 69.6635 9.812V10.076C69.6635 11 69.9055 11.7333 70.3895 12.276C70.8735 12.804 71.5189 13.068 72.3255 13.068Z" fill="white"/>
<path d="M80.6702 4.488H85.2902V6.072H85.6862C85.8915 5.47067 86.2362 5.00867 86.7202 4.686C87.2189 4.34867 87.8129 4.18 88.5022 4.18C89.5876 4.18 90.4602 4.52467 91.1202 5.214C91.7802 5.88867 92.1102 6.92267 92.1102 8.316V8.8L89.2502 9.064V8.756C89.2502 8.15467 89.0962 7.678 88.7882 7.326C88.4802 6.95934 88.0182 6.776 87.4022 6.776C86.7862 6.776 86.3022 6.98867 85.9502 7.414C85.5982 7.83933 85.4222 8.448 85.4222 9.24V12.76H87.9302V15.4H80.4062V12.76H82.6502V7.128H80.6702V4.488Z" fill="white"/>
<path d="M98.3209 8.492H98.8489L101.753 4.488H104.789V4.62L101.269 9.614V10.01L105.141 15.268V15.4H101.973L98.8489 11.132H98.3209V15.4H95.5489V0H98.3209V8.492Z" fill="white"/>
<path d="M110.582 10.846C110.596 11.1687 110.67 11.4693 110.802 11.748C110.948 12.012 111.139 12.2467 111.374 12.452C111.623 12.6427 111.902 12.7967 112.21 12.914C112.532 13.0167 112.87 13.068 113.222 13.068C113.911 13.068 114.439 12.9507 114.806 12.716C115.172 12.4667 115.436 12.1733 115.598 11.836L117.974 13.156C117.842 13.4347 117.658 13.728 117.424 14.036C117.189 14.3293 116.881 14.6007 116.5 14.85C116.133 15.0993 115.678 15.3047 115.136 15.466C114.608 15.6273 113.984 15.708 113.266 15.708C112.444 15.708 111.696 15.576 111.022 15.312C110.347 15.048 109.76 14.6667 109.262 14.168C108.778 13.6693 108.396 13.0607 108.118 12.342C107.854 11.6233 107.722 10.8093 107.722 9.9V9.768C107.722 8.932 107.861 8.16933 108.14 7.48C108.433 6.79067 108.829 6.204 109.328 5.72C109.826 5.236 110.406 4.862 111.066 4.598C111.74 4.31933 112.459 4.18 113.222 4.18C114.16 4.18 114.967 4.34867 115.642 4.686C116.316 5.00867 116.874 5.42667 117.314 5.94C117.754 6.43867 118.076 6.996 118.282 7.612C118.487 8.21333 118.59 8.8 118.59 9.372V10.846H110.582ZM113.2 6.688C112.496 6.688 111.924 6.87133 111.484 7.238C111.044 7.59 110.758 8.00067 110.626 8.47H115.774C115.686 7.95667 115.407 7.53133 114.938 7.194C114.483 6.85667 113.904 6.688 113.2 6.688Z" fill="white"/>
<path d="M121.302 4.488H124.536V0H127.308V4.488H131.246V7.128H127.308V12.1C127.308 12.54 127.506 12.76 127.902 12.76H130.85V15.4H126.23C125.732 15.4 125.321 15.2387 124.998 14.916C124.69 14.5933 124.536 14.1827 124.536 13.684V7.128H121.302V4.488Z" fill="white"/>
<path d="M137.281 19.8H134.509V4.488H137.281V6.072H137.677C137.97 5.47067 138.396 5.00867 138.953 4.686C139.51 4.34867 140.222 4.18 141.087 4.18C141.732 4.18 142.341 4.30467 142.913 4.554C143.5 4.80333 144.006 5.17 144.431 5.654C144.871 6.12333 145.216 6.70267 145.465 7.392C145.729 8.08133 145.861 8.866 145.861 9.746V10.142C145.861 11.0367 145.736 11.8287 145.487 12.518C145.238 13.2073 144.9 13.794 144.475 14.278C144.05 14.7473 143.544 15.1067 142.957 15.356C142.385 15.5907 141.762 15.708 141.087 15.708C140.588 15.708 140.156 15.6567 139.789 15.554C139.422 15.4513 139.1 15.312 138.821 15.136C138.557 14.96 138.33 14.762 138.139 14.542C137.963 14.3073 137.809 14.0653 137.677 13.816H137.281V19.8ZM140.185 13.068C141.05 13.068 141.747 12.804 142.275 12.276C142.818 11.7333 143.089 11 143.089 10.076V9.812C143.089 8.888 142.818 8.162 142.275 7.634C141.747 7.09133 141.05 6.82 140.185 6.82C139.32 6.82 138.616 7.09867 138.073 7.656C137.545 8.19867 137.281 8.91734 137.281 9.812V10.076C137.281 10.9707 137.545 11.6967 138.073 12.254C138.616 12.7967 139.32 13.068 140.185 13.068Z" fill="white"/>
<path d="M148.486 12.76H152.314V2.64H148.618V0H155.086V12.76H158.65V15.4H148.486V12.76Z" fill="white"/>
<path d="M169.084 13.816C168.791 14.5053 168.38 14.9967 167.852 15.29C167.324 15.5687 166.708 15.708 166.004 15.708C165.344 15.708 164.721 15.5833 164.134 15.334C163.562 15.0847 163.056 14.718 162.616 14.234C162.176 13.75 161.824 13.1633 161.56 12.474C161.311 11.7847 161.186 11 161.186 10.12V9.768C161.186 8.90267 161.311 8.12533 161.56 7.436C161.81 6.74667 162.147 6.16 162.572 5.676C162.998 5.192 163.489 4.82533 164.046 4.576C164.618 4.312 165.227 4.18 165.872 4.18C166.65 4.18 167.273 4.312 167.742 4.576C168.226 4.84 168.608 5.25067 168.886 5.808H169.282V4.488H172.054V12.1C172.054 12.54 172.252 12.76 172.648 12.76H173.066V15.4H171.174C170.676 15.4 170.265 15.2533 169.942 14.96C169.634 14.6667 169.48 14.2853 169.48 13.816H169.084ZM166.62 13.068C167.427 13.068 168.072 12.804 168.556 12.276C169.04 11.7333 169.282 11 169.282 10.076V9.812C169.282 8.888 169.04 8.162 168.556 7.634C168.072 7.09133 167.427 6.82 166.62 6.82C165.814 6.82 165.168 7.09133 164.684 7.634C164.2 8.162 163.958 8.888 163.958 9.812V10.076C163.958 11 164.2 11.7333 164.684 12.276C165.168 12.804 165.814 13.068 166.62 13.068Z" fill="white"/>
<path d="M186.141 11.396C185.892 12.6867 185.298 13.728 184.359 14.52C183.435 15.312 182.196 15.708 180.641 15.708C179.834 15.708 179.079 15.5833 178.375 15.334C177.686 15.0847 177.084 14.7253 176.571 14.256C176.058 13.7867 175.654 13.2073 175.361 12.518C175.068 11.8287 174.921 11.044 174.921 10.164V9.9C174.921 9.02 175.068 8.228 175.361 7.524C175.654 6.82 176.058 6.21867 176.571 5.72C177.099 5.22133 177.708 4.84 178.397 4.576C179.101 4.312 179.849 4.18 180.641 4.18C182.166 4.18 183.398 4.576 184.337 5.368C185.29 6.16 185.892 7.20133 186.141 8.492L183.413 9.196C183.325 8.55067 183.046 7.99334 182.577 7.524C182.108 7.05467 181.448 6.82 180.597 6.82C180.201 6.82 179.827 6.89333 179.475 7.04C179.123 7.18667 178.815 7.39933 178.551 7.678C178.287 7.942 178.074 8.272 177.913 8.668C177.766 9.04933 177.693 9.482 177.693 9.966V10.098C177.693 10.582 177.766 11.0147 177.913 11.396C178.074 11.7627 178.287 12.0707 178.551 12.32C178.815 12.5693 179.123 12.76 179.475 12.892C179.827 13.0093 180.201 13.068 180.597 13.068C181.448 13.068 182.093 12.8553 182.533 12.43C182.988 12.0047 183.281 11.4327 183.413 10.714L186.141 11.396Z" fill="white"/>
<path d="M191.406 10.846C191.421 11.1687 191.494 11.4693 191.626 11.748C191.773 12.012 191.963 12.2467 192.198 12.452C192.447 12.6427 192.726 12.7967 193.034 12.914C193.357 13.0167 193.694 13.068 194.046 13.068C194.735 13.068 195.263 12.9507 195.63 12.716C195.997 12.4667 196.261 12.1733 196.422 11.836L198.798 13.156C198.666 13.4347 198.483 13.728 198.248 14.036C198.013 14.3293 197.705 14.6007 197.324 14.85C196.957 15.0993 196.503 15.3047 195.96 15.466C195.432 15.6273 194.809 15.708 194.09 15.708C193.269 15.708 192.521 15.576 191.846 15.312C191.171 15.048 190.585 14.6667 190.086 14.168C189.602 13.6693 189.221 13.0607 188.942 12.342C188.678 11.6233 188.546 10.8093 188.546 9.9V9.768C188.546 8.932 188.685 8.16933 188.964 7.48C189.257 6.79067 189.653 6.204 190.152 5.72C190.651 5.236 191.23 4.862 191.89 4.598C192.565 4.31933 193.283 4.18 194.046 4.18C194.985 4.18 195.791 4.34867 196.466 4.686C197.141 5.00867 197.698 5.42667 198.138 5.94C198.578 6.43867 198.901 6.996 199.106 7.612C199.311 8.21333 199.414 8.8 199.414 9.372V10.846H191.406ZM194.024 6.688C193.32 6.688 192.748 6.87133 192.308 7.238C191.868 7.59 191.582 8.00067 191.45 8.47H196.598C196.51 7.95667 196.231 7.53133 195.762 7.194C195.307 6.85667 194.728 6.688 194.024 6.688Z" fill="white"/>
</svg>

<svg xmlns="http://www.w3.org/2000/svg" width="200" height="20" fill="none" viewBox="0 0 200 20"><path fill="#fff" d="M7.48 13.948h.396V0h2.904v15.4H5.104L3.3 1.452h-.396V15.4H0V0h5.676zM14.065 0h9.856v2.772h-6.952v3.52h6.82v2.772h-6.82V15.4h-2.904zM26.787 0h11.088v2.772h-4.092V15.4H30.88V2.772h-4.092zM53.025 0h5.104l.88 11.572v2.244h.528v-2.244L60.417 0h5.104v15.4h-2.64V5.104l.264-3.52h-.528L61.473 15.4h-4.356L55.929 1.584H55.4l.264 3.52V15.4h-2.64zM74.79 13.816q-.441 1.034-1.233 1.474-.792.418-1.847.418-.99 0-1.87-.374a4.4 4.4 0 0 1-1.519-1.1 5.5 5.5 0 0 1-1.055-1.76q-.375-1.034-.375-2.354v-.352q0-1.298.374-2.332t1.013-1.76 1.473-1.1a4.3 4.3 0 0 1 1.826-.396q1.167 0 1.87.396.726.396 1.144 1.232h.397v-1.32h2.772V12.1q0 .66.593.66h.419v2.64h-1.893q-.747 0-1.232-.44-.462-.44-.462-1.144zm-2.465-.748q1.211 0 1.936-.792.727-.814.727-2.2v-.264q0-1.386-.727-2.178-.725-.814-1.935-.814t-1.936.814q-.727.792-.727 2.178v.264q0 1.386.727 2.2.726.792 1.936.792M80.67 4.488h4.62v1.584h.396q.308-.901 1.034-1.386.749-.506 1.782-.506 1.628 0 2.618 1.034.99 1.012.99 3.102V8.8l-2.86.264v-.308q0-.902-.462-1.43-.462-.55-1.386-.55t-1.452.638-.528 1.826v3.52h2.508v2.64h-7.524v-2.64h2.244V7.128h-1.98zM98.32 8.492h.529l2.904-4.004h3.036v.132l-3.52 4.994v.396l3.872 5.258v.132h-3.168l-3.124-4.268h-.528V15.4h-2.772V0h2.772zM110.582 10.846q.022.484.22.902.22.396.572.704.374.286.836.462.484.154 1.012.154 1.034 0 1.584-.352.549-.375.792-.88l2.376 1.32a5 5 0 0 1-.55.88 3.9 3.9 0 0 1-.924.814q-.55.375-1.364.616-.793.242-1.87.242-1.233 0-2.244-.396a5.1 5.1 0 0 1-1.76-1.144 5.4 5.4 0 0 1-1.144-1.826q-.396-1.078-.396-2.442v-.132q0-1.254.418-2.288a5.3 5.3 0 0 1 1.188-1.76 5.3 5.3 0 0 1 1.738-1.122 5.6 5.6 0 0 1 2.156-.418q1.407 0 2.42.506 1.011.484 1.672 1.254a4.8 4.8 0 0 1 .968 1.672q.308.902.308 1.76v1.474zm2.618-4.158q-1.056 0-1.716.55-.66.528-.858 1.232h5.148q-.132-.77-.836-1.276-.682-.506-1.738-.506M121.302 4.488h3.234V0h2.772v4.488h3.938v2.64h-3.938V12.1q0 .66.594.66h2.948v2.64h-4.62q-.747 0-1.232-.484-.462-.484-.462-1.232V7.128h-3.234zM137.281 19.8h-2.772V4.488h2.772v1.584h.396a3.16 3.16 0 0 1 1.276-1.386q.836-.506 2.134-.506.968 0 1.826.374.88.374 1.518 1.1.66.705 1.034 1.738.396 1.035.396 2.354v.396q0 1.342-.374 2.376a5.4 5.4 0 0 1-1.012 1.76q-.638.705-1.518 1.078a4.9 4.9 0 0 1-1.87.352q-.748 0-1.298-.154a3.6 3.6 0 0 1-.968-.418 3.4 3.4 0 0 1-.682-.594 5.5 5.5 0 0 1-.462-.726h-.396zm2.904-6.732q1.298 0 2.09-.792.814-.814.814-2.2v-.264q0-1.386-.814-2.178-.792-.814-2.09-.814t-2.112.836q-.792.814-.792 2.156v.264q0 1.342.792 2.178.815.814 2.112.814M148.486 12.76h3.828V2.64h-3.696V0h6.468v12.76h3.564v2.64h-10.164zM169.084 13.816q-.44 1.034-1.232 1.474-.792.418-1.848.418-.99 0-1.87-.374a4.4 4.4 0 0 1-1.518-1.1 5.5 5.5 0 0 1-1.056-1.76q-.374-1.034-.374-2.354v-.352q0-1.298.374-2.332.375-1.034 1.012-1.76.639-.726 1.474-1.1a4.3 4.3 0 0 1 1.826-.396q1.167 0 1.87.396.727.396 1.144 1.232h.396v-1.32h2.772V12.1q0 .66.594.66h.418v2.64h-1.892q-.747 0-1.232-.44-.462-.44-.462-1.144zm-2.464-.748q1.21 0 1.936-.792.726-.814.726-2.2v-.264q0-1.386-.726-2.178-.726-.814-1.936-.814t-1.936.814q-.726.792-.726 2.178v.264q0 1.386.726 2.2.727.792 1.936.792M186.141 11.396q-.374 1.935-1.782 3.124-1.386 1.188-3.718 1.188a6.7 6.7 0 0 1-2.266-.374 5.3 5.3 0 0 1-1.804-1.078 4.9 4.9 0 0 1-1.21-1.738q-.44-1.034-.44-2.354V9.9q0-1.32.44-2.376a5.35 5.35 0 0 1 1.21-1.804 5.5 5.5 0 0 1 1.826-1.144 6.3 6.3 0 0 1 2.244-.396q2.288 0 3.696 1.188 1.43 1.188 1.804 3.124l-2.728.704a2.86 2.86 0 0 0-.836-1.672q-.703-.705-1.98-.704-.594 0-1.122.22a2.7 2.7 0 0 0-.924.638 3 3 0 0 0-.638.99q-.22.572-.22 1.298v.132q0 .726.22 1.298.242.55.638.924.396.375.924.572.528.176 1.122.176 1.276 0 1.936-.638.682-.637.88-1.716zM191.406 10.846q.022.484.22.902.22.396.572.704.374.286.836.462.484.154 1.012.154 1.034 0 1.584-.352.55-.375.792-.88l2.376 1.32a5 5 0 0 1-.55.88 3.9 3.9 0 0 1-.924.814q-.55.375-1.364.616-.792.242-1.87.242-1.231 0-2.244-.396a5.1 5.1 0 0 1-1.76-1.144 5.4 5.4 0 0 1-1.144-1.826q-.396-1.078-.396-2.442v-.132q0-1.254.418-2.288a5.3 5.3 0 0 1 1.188-1.76 5.3 5.3 0 0 1 1.738-1.122 5.6 5.6 0 0 1 2.156-.418q1.408 0 2.42.506 1.012.484 1.672 1.254.66.748.968 1.672.308.902.308 1.76v1.474zm2.618-4.158q-1.056 0-1.716.55-.66.528-.858 1.232h5.148q-.132-.77-.836-1.276-.682-.506-1.738-.506"/></svg>
